X:240
T:O'Rourke's
R:reel
N:aka The Wild Irishman
Z:transcribed by Dave Marshall
M:C|
K:Amix
|| cAeA fAeA | cAec dfed | cA (3AAA fd (3ddd |1 fage d2ed :|2 fage d2ef |
| g2fg e2ef | gfed e~a3 | g2fg edcd | eage d2ef |
g2fg e2ef | gfed e~a3 | bgaf gfed | e~a3 aged ||
